X: 50
T: Credo
C: Gaspar van Weerbeke
%%abc-version 2.0
%%abcx-abcm2ps-target-version 5.9.1 (29 Sep 2008)
%%abc-creator hum2abc beta
%%abcx-conversion-date 2022/03/06 13:05:57
%%abc-copyright Copyright 2016, Kolb, Paul
%%abc-edited-by Zybina, Karina
%%humdrum-veritas 3849093626
%%humdrum-veritas-data 826189977
%%linebreak <none>
%%barnumbers 0
L: 1/4
M: 3/2
N: Derived from Gas0205-Credo.krn
%%staves [1 2 3 4]
V: 1 clef=treble
V: 2 clef=treble-8
V: 3 clef=treble-8
V: 4 clef=bass
K: F
[V:1] G4G2 | 
[V:2] d4B2 | 
[V:3] G4G2 | 
[V:4] G,,4G,,2 | 
[V:1] D>EFDG2 | 
[V:2] G2FFG2 | 
[V:3] B2ABc2 | 
[V:4] G,,2D,D,_E,2 | 
[V:1] F4G2 | 
[V:2] A4B2 | 
[V:3] d4d2 | 
[V:4] D,4G,2 | 
[V:1] GGFD_EG | 
[V:2] ccAFG2 | 
[V:3] _e_ed2cc | 
[V:4] C,2D,F,_E,2 | 
[V:1] FA2G2^F | 
[V:2] A2d_ed2 | 
[V:3] d2BcA2 | 
[V:4] D,F,G,C,D,2 | 
[V:1] G2z2F3/F/ | 
[V:2] B2ccd3/d/ | 
[V:3] G2GGBB | 
[V:4] G,,2C,C,B,,3/B,,/ | 
[V:1] FFFD2_E | 
[V:2] d2BF2_E | 
[V:3] B>AFB2A | 
[V:4] B,,2D,B,,D,C, | 
[V:1] D2FDFG | 
[V:2] F2zBBG | 
[V:3] B2FFBc | 
[V:4] B,,2B,,B,,B,,_E, | 
[V:1] FB2AB2 | 
[V:2] ABc2d2 | 
[V:3] d2c2B2 | 
[V:4] D,B,,F,2B,,2 | 
[V:1] zBBB2B | 
[V:2] B2BG2G | 
[V:3] ddddd3/d/ | 
[V:4] G,,2G,,G,,2G,, | 
[V:1] A>AAAGG | 
[V:2] F>FFFGG | 
[V:3] d>cAd2c | 
[V:4] D,>D,D,D,_E,E, | 
[V:1] F2EEDF- | 
[V:2] A4zB- | 
[V:3] d2ccBd- | 
[V:4] D,2A,,2z2 | 
[V:1] FDC2B,B- | 
[V:2] B/A/BF2f2 | 
[V:3] dB2AB2 | 
[V:4] z6 | 
[V:1] BA>GG2^F | 
[V:2] gefd2d | 
[V:3] dc2BA2 | 
[V:4] G,A,F,G,D,2 | 
[V:1] G2z2z2 | 
[V:2] Bcd2z2 | 
[V:3] G2zA2G | 
[V:4] _E,2D,F,2E, | 
[V:1] z6 | 
[V:2] z6 | 
[V:3] B2AGcz | 
[V:4] D,G,z_E,C,F, | 
[V:1] z6 | 
[V:2] z6 | 
[V:3] cBd>cAA | 
[V:4] _E,D,2G,2^F, | 
[V:1] z6 | 
[V:2] z6 | 
[V:3] GBAG2^F | 
[V:4] G,D,2B,,A,,2 | 
[V:1] d2ddBG | 
[V:2] z2ggge | 
[V:3] G2z2z2 | 
[V:4] G,,2z2z2 | 
[V:1] c2ccc3/B/ | 
[V:2] cf2fff- | 
[V:3] z6 | 
[V:4] z6 | 
[V:1] A/G/FDG2^F | 
[V:2] f/e/d/c/B2A2 | 
[V:3] z6 | 
[V:4] z6 | 
[V:1] G2z2z2 | 
[V:2] G2z2z2 | 
[V:3] z2z2d2 | 
[V:4] z2D,2D,D, | 
[V:1] z6 | 
[V:2] z6 | 
[V:3] ddBBd3/c/ | 
[V:4] B,,B,,D,>C,B,,/A,,/G,,- | 
[V:1] z6 | 
[V:2] z6 | 
[V:3] B/A/G2cBA | 
[V:4] G,,C,B,,A,,D,2 | 
[V:1] z2z2G2 | 
[V:2] z6 | 
[V:3] dG2FE2 | 
[V:4] G,,>A,, B,,/C,/D,2^C, | 
[V:1] FF2DE2 | 
[V:2] AFDFC2 | 
[V:3] D2z2G2 | 
[V:4] D,2z2z2 | 
[V:1] D2z2GG | 
[V:2] DA2d2^c | 
[V:3] FF2DE2 | 
[V:4] z6 | 
[V:1] BA>GFE2 | 
[V:2] d2AdBG- | 
[V:3] D2z2GG | 
[V:4] z6 | 
[V:1] DF>ED2^C | 
[V:2] Gc>BA2G | 
[V:3] BA>GFEE | 
[V:4] z2zD,E,G, | 
[V:1] D2zGGG | 
[V:2] A2B2GG | 
[V:3] D2dBcc | 
[V:4] F,A,G,2_E,2 | 
[V:1] FFGB2A/G/ | 
[V:2] Ad2d2e | 
[V:3] d2BGB2 | 
[V:4] D,2G,4 | 
[V:1] A4zA | 
[V:2] f4zf | 
[V:3] c4zd | 
[V:4] F,4zD, | 
[V:1] AAA2F3/D/ | 
[V:2] fff2d3/d/ | 
[V:3] ddc2B3/B/ | 
[V:4] D,D,F,2B,,3/B,,/ | 
[V:1] DFDB,FD | 
[V:2] d2fdBf | 
[V:3] B2FFFF | 
[V:4] B,,2B,,B,,B,,B,, | 
[V:1] F>GB>AFD | 
[V:2] dBB2Ad | 
[V:3] F2D2FF | 
[V:4] B,,2B,,2D,2 | 
[V:1] z2zAAA | 
[V:2] c>defe2 | 
[V:3] A>Bcd2^c | 
[V:4] F,2E,D,A,2 | 
[V:1] FB>Ac>BA/G/ | 
[V:2] d2g3f- | 
[V:3] d>cd_e>dc/B/ | 
[V:4] D,G,2C,2F,- | 
[V:1] AB2G2^F | 
[V:2] f/e/d/c/Bcd2 | 
[V:3] cdG2A2 | 
[V:4] F,B,,_E,2D,2 | 
[V:1] G4 ||  
[V:2] d4 ||  
[V:3] G4 ||  
[V:4] G,,4 ||  
[V:1] [M:2/2]F4- | 
[V:2] [M:2/2]d4- | 
[V:3] [M:2/2]A4- | 
[V:4] [M:2/2]D,4- | 
[V:1] F4 | 
[V:2] d4 | 
[V:3] A4 | 
[V:4] D,4 | 
[V:1] F2F2 | 
[V:2] d2f2 | 
[V:3] A2B2 | 
[V:4] D,2D,2 | 
[V:1] G4- | 
[V:2] _e4- | 
[V:3] c4- | 
[V:4] C,4- | 
[V:1] G2G2 | 
[V:2] e2_e2 | 
[V:3] c2c2 | 
[V:4] C,2C,2 | 
[V:1] !fermata!F4 | 
[V:2] !fermata!d4 | 
[V:3] !fermata!A4 | 
[V:4] !fermata!D,4 | 
[V:1] F4 | 
[V:2] d4 | 
[V:3] A4 | 
[V:4] D,4 | 
[V:1] F2F2 | 
[V:2] d2d2 | 
[V:3] A2A2 | 
[V:4] D,2D,2 | 
[V:1] F4 | 
[V:2] d4 | 
[V:3] A4 | 
[V:4] D,4 | 
[V:1] G4 | 
[V:2] e4 | 
[V:3] B4 | 
[V:4] G,4 | 
[V:1] !fermata!A4 | 
[V:2] !fermata!f4 | 
[V:3] !fermata!c4 | 
[V:4] !fermata!F,4 | 
[V:1] A4 | 
[V:2] f4 | 
[V:3] c4 | 
[V:4] F,4 | 
[V:1] A4 | 
[V:2] f4 | 
[V:3] c4 | 
[V:4] F,4 | 
[V:1] G4 | 
[V:2] _e4 | 
[V:3] c4 | 
[V:4] C,4 | 
[V:1] F4 | 
[V:2] d4 | 
[V:3] A4 | 
[V:4] D,4 | 
[V:1] G4 | 
[V:2] B4 | 
[V:3] G4 | 
[V:4] _E,4 | 
[V:1] G4 | 
[V:2] c4 | 
[V:3] G4 | 
[V:4] _E,4 | 
[V:1] !fermata!D4 | 
[V:2] !fermata!B4 | 
[V:3] !fermata!F4 | 
[V:4] !fermata!B,,4 | 
[V:1] B4 | 
[V:2] d4 | 
[V:3] F4 | 
[V:4] B,,4 | 
[V:1] A4 | 
[V:2] d4 | 
[V:3] F4 | 
[V:4] D,4 | 
[V:1] G4 | 
[V:2] c4 | 
[V:3] G4 | 
[V:4] _E,4 | 
[V:1] F4 | 
[V:2] d4 | 
[V:3] A4 | 
[V:4] D,4 | 
[V:1] G2B2 | 
[V:2] _e2d2 | 
[V:3] c2d2- | 
[V:4] C,2B,,2 | 
[V:1] A2G2- | 
[V:2] f2c2 | 
[V:3] d2G2 | 
[V:4] D,2_E,2 | 
[V:1] G2^F2 | 
[V:2] d4 | 
[V:3] A4 | 
[V:4] D,4 | 
[V:1] G4 ||  
[V:2] d4 ||  
[V:3] G4 ||  
[V:4] G,,4 ||  
[V:1] [M:2/2]z4 | 
[V:2] [M:2/2]z4 | 
[V:3] [M:2/2]D4 | 
[V:4] [M:2/2]D,4 | 
[V:1] z4 | 
[V:2] z4 | 
[V:3] E>FG2- | 
[V:4] C,2B,,2 | 
[V:1] z4 | 
[V:2] z4 | 
[V:3] G2^F2 | 
[V:4] A,,4 | 
[V:1] D2D2 | 
[V:2] d2d2 | 
[V:3] G4 | 
[V:4] G,,4 | 
[V:1] EFG2- | 
[V:2] c2B2 | 
[V:3] z4 | 
[V:4] z4 | 
[V:1] G2^F2 | 
[V:2] A4 | 
[V:3] z4 | 
[V:4] z4 | 
[V:1] G4 | 
[V:2] G4 | 
[V:3] z4 | 
[V:4] z2G,2 | 
[V:1] z4 | 
[V:2] z4 | 
[V:3] z2d2 | 
[V:4] D,2D,2 | 
[V:1] z2A2 | 
[V:2] z4 | 
[V:3] A2A2 | 
[V:4] F,2F,2 | 
[V:1] E2E2 | 
[V:2] z4 | 
[V:3] c2c2 | 
[V:4] C,3D, | 
[V:1] G2G2 | 
[V:2] z4 | 
[V:3] G3A | 
[V:4] E,F,G,2- | 
[V:1] D3E | 
[V:2] z2A2 | 
[V:3] Bcd2- | 
[V:4] G,F,D,2 | 
[V:1] FGA2- | 
[V:2] D>EF2 | 
[V:3] dcA2 | 
[V:4] z4 | 
[V:1] AGE2 | 
[V:2] D2A2 | 
[V:3] d2c2 | 
[V:4] z4 | 
[V:1] D2CD- | 
[V:2] zGAG- | 
[V:3] B2AB- | 
[V:4] z4 | 
[V:1] DC/B,/A,2 | 
[V:2] G/F/GDd- | 
[V:3] BG2^F | 
[V:4] z2D,2 | 
[V:1] z2G2 | 
[V:2] d_e2d/c/ | 
[V:3] G4 | 
[V:4] G,,C,2_E, | 
[V:1] F>GAB- | 
[V:2] d2cd- | 
[V:3] z4 | 
[V:4] D,>C,A,,G,, | 
[V:1] BG2^F | 
[V:2] dBA2 | 
[V:3] z2d2 | 
[V:4] B,,C,D,2 | 
[V:1] G4 | 
[V:2] G2z2 | 
[V:3] d2d2 | 
[V:4] G,,4 | 
[V:1] z2G2 | 
[V:2] B4 | 
[V:3] d4 | 
[V:4] G,4 | 
[V:1] G2G2 | 
[V:2] G2G2 | 
[V:3] c4 | 
[V:4] C,2C,2 | 
[V:1] E2E2 | 
[V:2] G2G2 | 
[V:3] c2c2 | 
[V:4] C,4 | 
[V:1] A4 | 
[V:2] FD>EF | 
[V:3] A3B | 
[V:4] F,4 | 
[V:1] G2F2 | 
[V:2] G2A2 | 
[V:3] c2d3/c/ | 
[V:4] E,2D,3/E,/ | 
[V:1] A2D2 | 
[V:2] z4 | 
[V:3] AB2A- | 
[V:4] F,G,2D, | 
[V:1] zDG2 | 
[V:2] A2G2 | 
[V:3] Ad2^c | 
[V:4] F,2E,2 | 
[V:1] F2EF- | 
[V:2] A2Ac- | 
[V:3] d2cA- | 
[V:4] D,2z2 | 
[V:1] FE/D/CE- | 
[V:2] cB/A/GB- | 
[V:3] AG/F/EG- | 
[V:4] z4 | 
[V:1] ED2^C | 
[V:2] BA2G | 
[V:3] GFE2 | 
[V:4] z4 | 
[V:1] D4 | 
[V:2] A2z2 | 
[V:3] D2G2 | 
[V:4] D,2G,,B,, | 
[V:1] z2G2 | 
[V:2] z4 | 
[V:3] FG2B | 
[V:4] A,,B,,G,,2 | 
[V:1] FG2B | 
[V:2] z4 | 
[V:3] ABG2 | 
[V:4] z4 | 
[V:1] ABG2 | 
[V:2] z4 | 
[V:3] z4 | 
[V:4] D,2_E,2 | 
[V:1] z4 | 
[V:2] d3c | 
[V:3] z4 | 
[V:4] D,>E, F,/G,/A,- | 
[V:1] d3c | 
[V:2] B2A2 | 
[V:3] z4 | 
[V:4] A,G,2^F, | 
[V:1] B2A2 | 
[V:2] G2F2 | 
[V:3] z4 | 
[V:4] G,2D,2 | 
[V:1] G2F2 | 
[V:2] G2D2 | 
[V:3] B2A2 | 
[V:4] z4 | 
[V:1] G2D2 | 
[V:2] zdf2 | 
[V:3] G2F2 | 
[V:4] G,,2D,2 | 
[V:1] z4 | 
[V:2] dBc2 | 
[V:3] GB2A | 
[V:4] zG,F,2 | 
[V:1] B2A2 | 
[V:2] B2z2 | 
[V:3] B2d2 | 
[V:4] G,2D,F, | 
[V:1] G2F2 | 
[V:2] c2d2 | 
[V:3] _e2f2 | 
[V:4] _E,2D,2 | 
[V:1] GB2A | 
[V:2] _ef3 | 
[V:3] _edc2 | 
[V:4] C,B,,F,2 | 
[V:1] B2z2 | 
[V:2] d2_e2 | 
[V:3] B2G2 | 
[V:4] B,,2C,2 | 
[V:1] z4 | 
[V:2] cf>_ed/c/ | 
[V:3] A2F2 | 
[V:4] A,,2D,2 | 
[V:1] z4 | 
[V:2] B>c_ed- | 
[V:3] G2_EF | 
[V:4] G,,2C,B,,- | 
[V:1] z4 | 
[V:2] dc/B/A2 | 
[V:3] DG2^F | 
[V:4] B,,A,,/G,,/D,2 | 
[V:1] B2G2 | 
[V:2] G2z2 | 
[V:3] G4 | 
[V:4] G,,2C,2 | 
[V:1] d2B2 | 
[V:2] z2g2 | 
[V:3] B2G2 | 
[V:4] B,,2_E,2 | 
[V:1] AB2A/G/ | 
[V:2] f2d3/e/ | 
[V:3] d2B2 | 
[V:4] zD,G,2 | 
[V:1] AG2^F | 
[V:2] fd3 | 
[V:3] cGA2 | 
[V:4] F,G,D,2 | 
[V:1] G4 | 
[V:2] d4 | 
[V:3] G4 | 
[V:4] G,,4 | 
[V:1] z4 | 
[V:2] z4 | 
[V:3] G2B2 | 
[V:4] z2G,2 | 
[V:1] z4 | 
[V:2] z4 | 
[V:3] A2G2 | 
[V:4] D,2E,2 | 
[V:1] z4 | 
[V:2] z4 | 
[V:3] A2GA- | 
[V:4] D,F,E,D, | 
[V:1] z4 | 
[V:2] zG2F | 
[V:3] A/B/c2=B | 
[V:4] F,C,D,2 | 
[V:1] E4 | 
[V:2] G2G2 | 
[V:3] c4- | 
[V:4] C,4- | 
[V:1] E2E2 | 
[V:2] G4 | 
[V:3] c2e2 | 
[V:4] C,4 | 
[V:1] G2G2 | 
[V:2] G4 | 
[V:3] d4- | 
[V:4] G,,4 | 
[V:1] F2F2 | 
[V:2] D2d2 | 
[V:3] d4 | 
[V:4] z4 | 
[V:1] E>FGA- | 
[V:2] c2BA | 
[V:3] z4 | 
[V:4] z4 | 
[V:1] AGA2 | 
[V:2] B3/A//G//F2 | 
[V:3] z4 | 
[V:4] z4 | 
[V:1] G2G2 | 
[V:2] G2GG | 
[V:3] c2c2 | 
[V:4] C,2C,2 | 
[V:1] F2E2 | 
[V:2] Dd2^c | 
[V:3] A2G2 | 
[V:4] D,2E,2 | 
[V:1] F3G | 
[V:2] d4 | 
[V:3] A3B | 
[V:4] D,2D,2 | 
[V:1] A2FG- | 
[V:2] z4 | 
[V:3] c2de- | 
[V:4] z4 | 
[V:1] GFE2 | 
[V:2] z4 | 
[V:3] ed2^c | 
[V:4] z4 | 
[V:1] D2F2 | 
[V:2] A2A2 | 
[V:3] d2d2 | 
[V:4] D,2D,2 | 
[V:1] F2F2 | 
[V:2] A2A2 | 
[V:3] c2c2 | 
[V:4] F,2F,2 | 
[V:1] D2F2- | 
[V:2] F3F | 
[V:3] B2B2- | 
[V:4] B,,3B,, | 
[V:1] FFF3/G/ | 
[V:2] FB>cd/e/ | 
[V:3] BBB2 | 
[V:4] B,,4 | 
[V:1] A>Bc2 | 
[V:2] f2f3/e/ | 
[V:3] A4 | 
[V:4] F,,4 | 
[V:1] AB2A/G/ | 
[V:2] fg2f/_e/ | 
[V:3] z4 | 
[V:4] z4 | 
[V:1] F2_ED | 
[V:2] d2cd- | 
[V:3] z4 | 
[V:4] z4 | 
[V:1] B,2C2 | 
[V:2] dB2A | 
[V:3] z4 | 
[V:4] zB,,F,2 | 
[V:1] B,2B2 | 
[V:2] B2z2 | 
[V:3] B2B2 | 
[V:4] B,,2B,,2 | 
[V:1] B2B2 | 
[V:2] F2F2 | 
[V:3] d2d2 | 
[V:4] B,,2B,,2 | 
[V:1] A2A2 | 
[V:2] A2AA | 
[V:3] c2c2 | 
[V:4] F,2F,2 | 
[V:1] D2D2 | 
[V:2] B2G2 | 
[V:3] B2B2 | 
[V:4] G,2G,2 | 
[V:1] F2F2 | 
[V:2] F2D2 | 
[V:3] d2cB- | 
[V:4] D,2D,2 | 
[V:1] _E2E2 | 
[V:2] _E2_E2 | 
[V:3] BcA3/G/ | 
[V:4] C,4 | 
[V:1] D>_EF2 | 
[V:2] F2F2 | 
[V:3] B4 | 
[V:4] B,,4 | 
[V:1] _ED2C | 
[V:2] GD_E2 | 
[V:3] z4 | 
[V:4] z4 | 
[V:1] D2G2 | 
[V:2] D2z2 | 
[V:3] z4 | 
[V:4] z4 | 
[V:1] F2B2 | 
[V:2] D2G2 | 
[V:3] z4 | 
[V:4] z4 | 
[V:1] A2d2 | 
[V:2] F2B2 | 
[V:3] z4 | 
[V:4] z4 | 
[V:1] c2BA- | 
[V:2] A2d2 | 
[V:3] z4 | 
[V:4] z4 | 
[V:1] AG2^F | 
[V:2] BcA2 | 
[V:3] z4 | 
[V:4] z4 | 
[V:1] G4 | 
[V:2] G2G2 | 
[V:3] c2c2 | 
[V:4] C,2C,2 | 
[V:1] G2G2 | 
[V:2] G2c2- | 
[V:3] c2G2 | 
[V:4] C,4 | 
[V:1] G2G2 | 
[V:2] c2c2 | 
[V:3] G4 | 
[V:4] _E,2E,2 | 
[V:1] F4 | 
[V:2] d2z2 | 
[V:3] A2A2 | 
[V:4] D,2F,2 | 
[V:1] z4 | 
[V:2] z4 | 
[V:3] B2Ac- | 
[V:4] G,>E,F,E,/D,/ | 
[V:1] z4 | 
[V:2] z4 | 
[V:3] cB/A/G2 | 
[V:4] C,>D,_E,2 | 
[V:1] z4 | 
[V:2] z4 | 
[V:3] FA2G/F/ | 
[V:4] D,2A,,3/B,,/ | 
[V:1] z4 | 
[V:2] z4 | 
[V:3] EFDd- | 
[V:4] C,A,,B,,G,,- | 
[V:1] z4 | 
[V:2] z4 | 
[V:3] dc>BA- | 
[V:4] G,,A,,>B,,C, | 
[V:1] z4 | 
[V:2] z4 | 
[V:3] AG2^F | 
[V:4] D,G,,A,,2 | 
[V:1] z2G2 | 
[V:2] d4 | 
[V:3] G2B2 | 
[V:4] G,,2G,,2 | 
[V:1] G2G2 | 
[V:2] d2B2 | 
[V:3] B2B2 | 
[V:4] G,,2G,,2 | 
[V:1] E2EE | 
[V:2] G2GG | 
[V:3] c2cc | 
[V:4] C,2C,C, | 
[V:1] G2G2 | 
[V:2] G2G2 | 
[V:3] c2c2 | 
[V:4] _E,2E,2 | 
[V:1] F2A2 | 
[V:2] A2z2 | 
[V:3] d2zd- | 
[V:4] D,2F,2 | 
[V:1] B2G2 | 
[V:2] d2_e2 | 
[V:3] dB2c- | 
[V:4] G,2_E,2 | 
[V:1] A2F2 | 
[V:2] c2d2 | 
[V:3] cA2B- | 
[V:4] F,2D,2 | 
[V:1] G2_E2 | 
[V:2] B2c2 | 
[V:3] BG2A- | 
[V:4] _E,2C,2 | 
[V:1] F2D2 | 
[V:2] A2B2 | 
[V:3] AF2G- | 
[V:4] D,2B,,2 | 
[V:1] _E2CD- | 
[V:2] G2AF | 
[V:3] G_EFD- | 
[V:4] C,2A,,B,,- | 
[V:1] DC/B,/A,2 | 
[V:2] G2DF | 
[V:3] DG2^F | 
[V:4] B,,G,,D,2 | 
[V:1] G,4- | 
[V:2] _E2D2 | 
[V:3] G4- | 
[V:4] G,,4- | 
[V:1] G,4 ||  
[V:2] D4 ||  
[V:3] G4 ||  
[V:4] G,,4 ||  
[V:1] [M:3/2]z6 | 
[V:2] [M:3/2]d4d2- | 
[V:3] [M:3/2]G4D2- | 
[V:4] [M:3/2]G,,4G,,2- | 
[V:1] z6 | 
[V:2] d2c2A2 | 
[V:3] DEF4 | 
[V:4] G,,2A,,4 | 
[V:1] G2G2D2- | 
[V:2] B4G2 | 
[V:3] G2G2G2 | 
[V:4] G,,2G,,2G,,2 | 
[V:1] DEF4 | 
[V:2] d2d2d2 | 
[V:3] G2A4 | 
[V:4] G,,2D,4 | 
[V:1] G6 | 
[V:2] B2>c2d2 | 
[V:3] G4z2 | 
[V:4] G,,6- | 
[V:1] z6 | 
[V:2] G4z2 | 
[V:3] d2d2d2 | 
[V:4] G,,6- | 
[V:1] d2d2d2 | 
[V:2] d2>e2f2 | 
[V:3] B2>c2d2 | 
[V:4] G,,4z2 | 
[V:1] B2>c2d2 | 
[V:2] g2>f2d2 | 
[V:3] G6 | 
[V:4] G,,4B,,2 | 
[V:1] G4E2 | 
[V:2] e4e2 | 
[V:3] z6 | 
[V:4] C,4C,2 | 
[V:1] A2>G2FE | 
[V:2] f2>e2dc | 
[V:3] F2>G2A2 | 
[V:4] D,2D,2D,2 | 
[V:1] D4A2 | 
[V:2] d2>c2A2 | 
[V:3] B2>A2F2 | 
[V:4] B,,2>C,2D,2 | 
[V:1] B4c2 | 
[V:2] G2DG2^F | 
[V:3] G4A2 | 
[V:4] G,,2B,,2A,,2 | 
[V:1] d4c2 | 
[V:2] G2B2A2 | 
[V:3] B4c2 | 
[V:4] G,,4z2 | 
[V:1] B2A3G | 
[V:2] G2f4 | 
[V:3] d4c2 | 
[V:4] G,2F,4 | 
[V:1] G4^F2 | 
[V:2] d4z2 | 
[V:3] B2A4 | 
[V:4] G,2D,4 | 
[V:1] G4z2 | 
[V:2] g2g2g2 | 
[V:3] G6 | 
[V:4] G,,4z2 | 
[V:1] z6 | 
[V:2] d2d2e2 | 
[V:3] z6 | 
[V:4] G,2G,2G,2 | 
[V:1] z6 | 
[V:2] f4c2 | 
[V:3] z6 | 
[V:4] D,4A,,2 | 
[V:1] G2G2G2 | 
[V:2] B4G2 | 
[V:3] z6 | 
[V:4] G,,6 | 
[V:1] D2D2E2 | 
[V:2] B4c2 | 
[V:3] G2G2G2 | 
[V:4] G,,4C,2 | 
[V:1] F4E2 | 
[V:2] d4c2 | 
[V:3] D2D2E2 | 
[V:4] B,,4C,2 | 
[V:1] D2F2G2 | 
[V:2] A4c2 | 
[V:3] F4E2 | 
[V:4] D,4C,2 | 
[V:1] F2E3D | 
[V:2] A2c4 | 
[V:3] D2G2G2 | 
[V:4] D,2C,4 | 
[V:1] D4^C2 | 
[V:2] A6 | 
[V:3] F2E4 | 
[V:4] D,2A,,2A,,2 | 
[V:1] D4z2 | 
[V:2] F2DG2^F | 
[V:3] D4A2 | 
[V:4] B,,4A,,2 | 
[V:1] z2z2A2 | 
[V:2] G4c2 | 
[V:3] B4A2 | 
[V:4] G,,4F,,2 | 
[V:1] B4A2 | 
[V:2] B2def2 | 
[V:3] G4F2 | 
[V:4] G,,4A,,2 | 
[V:1] G4^F2 | 
[V:2] d4z2 | 
[V:3] G2B2A2 | 
[V:4] B,,2G,,2D,2 | 
[V:1] G2B2A2 | 
[V:2] B4F2 | 
[V:3] G4z2 | 
[V:4] G,,4D,2 | 
[V:1] G4z2 | 
[V:2] G4G2 | 
[V:3] G2B2c2 | 
[V:4] _E,4E,2 | 
[V:1] F2B2c2 | 
[V:2] A2D2E2 | 
[V:3] d2>c2A2 | 
[V:4] D,4C,2 | 
[V:1] d2>c2A2 | 
[V:2] F2G2A2 | 
[V:3] B2G2c2 | 
[V:4] B,,2z2A,,2 | 
[V:1] B2G2c2- | 
[V:2] B2c3d | 
[V:3] B2_e3d | 
[V:4] G,,2C,4 | 
[V:1] cBAGA2 | 
[V:2] e2f4 | 
[V:3] c2>B2c2 | 
[V:4] C,2F,4 | 
[V:1] B4G2 | 
[V:2] f2d2_e2 | 
[V:3] d2B2c2 | 
[V:4] D,2G,2C,2 | 
[V:1] ^F6 | 
[V:2] d6 | 
[V:3] A6 | 
[V:4] D,6 | 
[V:1] G4 |]  
[V:2] d4 |]  
[V:3] G4 |]  
[V:4] G,,4 |]  


